logo/qubes-logo-blue.svg

<?xml version="1.0" encoding="UTF-8" standalone="no"?>
<!-- Created with Inkscape (http://www.inkscape.org/) -->

<svg
   xmlns:dc="http://purl.org/dc/elements/1.1/"
   xmlns:cc="http://creativecommons.org/ns#"
   xmlns:rdf="http://www.w3.org/1999/02/22-rdf-syntax-ns#"
   xmlns:svg="http://www.w3.org/2000/svg"
   xmlns="http://www.w3.org/2000/svg"
   version="1.1"
   width="256"
   height="256"
   id="svg3988">
  <defs
     id="defs3990" />
  <metadata
     id="metadata3993">
    <rdf:RDF>
      <cc:Work
         rdf:about="">
        <dc:format>image/svg+xml</dc:format>
        <dc:type
           rdf:resource="http://purl.org/dc/dcmitype/StillImage" />
        <dc:title></dc:title>
      </cc:Work>
    </rdf:RDF>
  </metadata>
  <path
     d="m 127.95743,13.571685 a 23.297717,23.351298 0 0 0 -12.20092,3.132036 L 37.057212,62.229153 a 23.297717,23.351298 0 0 0 -11.655391,20.22024 l 0,91.098557 a 23.297717,23.351298 0 0 0 11.655391,20.19654 l 78.699298,45.56119 a 23.297717,23.351298 0 0 0 23.29883,0 l 78.71124,-45.56119 a 23.297717,23.351298 0 0 0 11.64346,-20.19654 l 0,-91.098557 A 23.297717,23.351298 0 0 0 217.76658,62.229153 L 139.05534,16.703721 a 23.297717,23.351298 0 0 0 -11.09791,-3.132036 z m -0.25271,51.49152 a 12.813743,12.843212 0 0 1 6.10788,1.71486 l 43.29326,25.043124 a 12.813743,12.843212 0 0 1 6.40515,11.122571 l 0,50.11011 a 12.813743,12.843212 0 0 1 -6.40515,11.09843 l -43.29326,25.06696 a 12.813743,12.843212 0 0 1 -12.80736,0 L 77.710466,164.1523 a 12.813743,12.843212 0 0 1 -6.403682,-11.09843 l 0,-50.11011 A 12.813743,12.843212 0 0 1 77.710466,91.821189 L 121.00524,66.778065 a 12.813743,12.843212 0 0 1 6.69948,-1.71486 z"
     id="path3946"
     style="fill:#7eadff" />
  <path
     d="m 226.284,70.811596 -44.50621,25.74576 a 12.813743,12.843212 0 0 1 1.72283,6.418574 l 0,50.09817 a 12.813743,12.843212 0 0 1 -6.40368,11.1105 l -43.28136,25.0552 a 12.813743,12.843212 0 0 1 -6.37991,1.70279 l 0,51.49153 a 23.297717,23.351298 0 0 0 11.61967,-3.108 l 78.71124,-45.56124 a 23.297717,23.351298 0 0 0 11.64346,-20.19655 l 0,-91.086626 A 23.297717,23.351298 0 0 0 226.284,70.811596 z"
     id="path3948"
     style="fill:#63a0ff;fill-opacity:1;stroke:none" />
  <path
     d="M 28.548696,70.77256 73.047431,96.531736 A 12.813743,12.843212 0 0 1 77.731307,91.82698 L 121.01862,66.778048 a 12.813743,12.843212 0 0 1 12.80141,0.0036 l 43.29027,25.042236 a 12.813743,12.843212 0 0 1 4.66154,4.686576 L 226.2617,70.764856 a 23.297717,23.351298 0 0 0 -8.49512,-8.532108 l -78.72311,-45.54216 a 23.297717,23.351298 0 0 0 -23.27208,-0.0084 L 37.070587,62.225656 a 23.297717,23.351298 0 0 0 -8.521891,8.5473 z"
     id="path3950"
     style="fill:#99bfff;fill-opacity:1;stroke:none" />
  <rect
     width="53.301201"
     height="74.58963"
     ry="14.226912"
     x="-137.26288"
     y="290.53906"
     transform="matrix(0.86430004,-0.50297658,0.86430004,0.50297658,0,0)"
     id="rect3944"
     style="fill:#63a0ff;fill-opacity:1;stroke:none" />
</svg>

<?xml version="1.0" encoding="UTF-8" standalone="no"?>
<!-- Created with Inkscape (http://www.inkscape.org/) -->

<svg
   version="1.1"
   width="256"
   height="256"
   id="svg3988"
   sodipodi:docname="qubes-logo-blue.svg"
   inkscape:version="1.4 (e7c3feb100, 2024-10-09)"
   xmlns:inkscape="http://www.inkscape.org/namespaces/inkscape"
   xmlns:sodipodi="http://sodipodi.sourceforge.net/DTD/sodipodi-0.dtd"
   xmlns="http://www.w3.org/2000/svg"
   xmlns:svg="http://www.w3.org/2000/svg"
   xmlns:rdf="http://www.w3.org/1999/02/22-rdf-syntax-ns#"
   xmlns:cc="http://creativecommons.org/ns#"
   xmlns:dc="http://purl.org/dc/elements/1.1/">
  <sodipodi:namedview
     id="namedview1"
     pagecolor="#ffffff"
     bordercolor="#000000"
     borderopacity="0.25"
     inkscape:showpageshadow="2"
     inkscape:pageopacity="0.0"
     inkscape:pagecheckerboard="0"
     inkscape:deskcolor="#d1d1d1"
     inkscape:zoom="1"
     inkscape:cx="-40"
     inkscape:cy="140.5"
     inkscape:window-width="1920"
     inkscape:window-height="1152"
     inkscape:window-x="0"
     inkscape:window-y="48"
     inkscape:window-maximized="1"
     inkscape:current-layer="g3" />
  <defs
     id="defs3990" />
  <metadata
     id="metadata3993">
    <rdf:RDF>
      <cc:Work
         rdf:about="">
        <dc:format>image/svg+xml</dc:format>
        <dc:type
           rdf:resource="http://purl.org/dc/dcmitype/StillImage" />
        <dc:title />
      </cc:Work>
    </rdf:RDF>
  </metadata>
  <g
     id="g3"
     inkscape:label="qubes-logo-blue">
    <path
       style="fill:#99bfff;fill-opacity:1"
       d="m 226.30068,70.794123 c -2.01056,-3.498744 -4.92528,-6.475278 -8.5342,-8.56497 L 139.05534,16.703721 c -3.37907,-1.959464 -7.19523,-3.036454 -11.09791,-3.132036 -4.27673,-0.09851 -8.49796,0.985098 -12.20092,3.132036 L 37.057212,62.229153 c -3.603589,2.083759 -6.515982,5.051518 -8.528205,8.540738 l 44.49168,25.75528 c 1.105632,-1.921363 2.707244,-3.555971 4.689779,-4.703982 L 121.00524,66.778065 c 2.03419,-1.17614 4.35173,-1.76936 6.69948,-1.71486 2.14717,0.04953 4.24748,0.639218 6.10788,1.71486 l 43.29326,25.043124 c 1.98409,1.148558 3.58677,2.784447 4.69273,4.707414 z"
       id="path3"
       inkscape:label="upper-center" />
    <path
       id="path2"
       style="fill:#63a0ff;fill-opacity:1"
       d="M 226.30078 70.794922 L 181.79883 96.529297 C 182.90243 98.448154 183.5119 100.65177 183.51172 102.94336 L 183.51172 153.05469 C 183.50372 157.63415 181.06196 161.862 177.10547 164.15234 L 133.8125 189.21875 C 131.83956 190.35969 129.63907 190.93258 127.4375 190.9375 L 127.43359 242.43359 C 131.44691 242.42859 135.45865 241.38773 139.05469 239.30664 L 156.54688 229.18164 L 184.64844 245.53516 C 191.4606 249.49947 202.42807 249.49947 209.24023 245.53516 L 230.7168 233.03711 C 237.52896 229.07279 237.52896 222.69088 230.7168 218.72656 L 202.73633 202.44336 L 217.76562 193.74414 C 224.96379 189.57616 229.40192 181.88094 229.41016 173.54883 L 229.41016 82.449219 C 229.41026 78.286089 228.30445 74.281673 226.30078 70.794922 z "
       inkscape:label="lowerright" />
    <path
       style="fill:#7eadff"
       d="m 127.4375,190.93805 c -2.22062,0.005 -4.44224,-0.56797 -6.43226,-1.71879 L 77.710466,164.1523 c -3.955923,-2.29072 -6.395755,-6.51927 -6.403682,-11.09843 v -50.11011 c -3.33e-4,-2.29291 0.609221,-4.498878 1.713903,-6.418589 l -44.49168,-25.75528 c -2.013832,3.492009 -3.126053,7.506313 -3.127186,11.679502 v 91.098557 c 0.01071,8.33458 4.452643,16.03159 11.655391,20.19654 l 78.699298,45.56119 c 3.61258,2.09065 7.64531,3.13358 11.67709,3.12879 z"
       id="path1"
       inkscape:label="lowerleft" />
  </g>
</svg>
